X:1
T:Title
%%score { ( 1 3 ) | ( 2 4 ) }
L:1/8
Q:1/4=100
M:4/4
K:G
V:1 treble nm="Grand Piano"
V:3 treble 
V:2 treble 
V:4 treble 
V:1
 B2 _B>B =B2 G2 | [EA]2 [E^G]>[EG] [EA]2 E2 | F2 F>G [FA] [GB]2 [Ac] | [ce]2 [Bd]>[Ac] B4 | %4
w: Chas.~H.~Gabriel * * * *||||
 B2 _B>B =B2 G2 | [EA]2 [E^G]>[EG] [EA]2 E2 | F2 D>F [FA] [Fd]2 [EFc] | [DGB][DGB] [CDA]2 [B,DG]4 | %8
w: ||||
 [DFA]2 [Fd]>[F^c] [Fd]2 [FA]2 | G2 d>^c d2 B2 | z4 z .^c3 | z4 [Fd]4 | d2 B>A G2 d2 | %13
w: |||||
 [Ge]2 [Ec]>[DB] [EA]2 [Ge]2 | [Fd]2 BG D [Fd]2 [EFc] | [DFB]2 [CDA]2 [G,B,DG]4 |] %16
w: |||
V:2
 [G,DG]2 [G,^CG]>[G,CG] [G,DG]2 [G,B,D]2 | [C,C]2 [C,C]>[C,C] [C,C]2 [^C,A,]2 | %2
 [D,A,D]2 [D,A,D]>[D,B,D] [D,D] [D,D]2 [D,D] | [D,D]2 [D,D]>[D,D][K:treble] [G,DG]4 | %4
 [G,DG]2 [G,^CG]>[G,CG] [G,DG]2[K:bass] [G,B,D]2 | [C,C]2 [C,C]>[C,C] [C,C]2 [^C,A,]2 | %6
 [D,A,D]2 [D,F,]>[D,A,D] [D,D] [D,A,]2 D, | D,D, D,2 G,4 | D,2 [D,A,]>[D,A,] [D,A,]2 [D,C]2 | %9
 [G,B,D]2 [G,B,G]>[G,_B,G] [G,=B,G]2 [G,DG]2 | [F,D] [F,D]2 [F,D] [E,A,][E,A,] A,2 | z4 A,2 z2 | %12
 [G,B,G]2 [G,DF]>[G,CD] [G,B,D]2 [G,B,G]2 | [C,C]2 [C,A,]>[C,B,] [C,C]2 [^C,_B,]2 | %14
 [D,B,]2 B,G, D, [D,A,]2 D, | D,2 D,2 G,,4 |] %16
V:3
 x8 | x8 | x8 | x8 | x8 | x8 | x8 | x8 | x8 | x8 | A A2 A [F^c]FGG | [Fd]<[Fd] [Ge]2 z2 C2 | x8 | %13
 x8 | x8 | x8 |] %16
V:4
 x8 | x8 | x8 | x4[K:treble] x4 | x6[K:bass] x2 | x8 | x8 | x8 | x8 | x8 | x8 | %11
 [D,A,]<[D,A,] [A,,A,]2 D,4 | x8 | x8 | x8 | x8 |] %16

